value_images/individual.svg

<svg xmlns="http://www.w3.org/2000/svg" width="200" height="200" xml:space="preserve" style="fill-rule:evenodd;clip-rule:evenodd;stroke-linejoin:round;stroke-miterlimit:2">
    <path d="M100 3.75C100 1.68 98.32 0 96.25 0H3.75C1.68 0 0 1.68 0 3.75v92.5C0 98.32 1.68 100 3.75 100h92.5c2.07 0 3.75-1.68 3.75-3.75V3.75z" style="fill:#222" transform="scale(2)"/>
    <path d="M95 7.5A2.5 2.5 0 0 0 92.5 5h-85A2.5 2.5 0 0 0 5 7.5v85A2.5 2.5 0 0 0 7.5 95h85a2.5 2.5 0 0 0 2.5-2.5v-85z" style="fill:#099" transform="scale(2)"/>
    <path d="M40.943 81.211c-.785-.166-2.489-.715-2.934-.944a9.978 9.978 0 0 0-1.13-.441c-1.888-.62-3.448-1.693-4.398-3.025-1.324-1.854-5.596-9.607-5.602-10.163-.001-.118.156-.485.35-.817.859-1.469 1.259-3.039 1.038-4.072a6.028 6.028 0 0 1-.134-.981c0-.431-.071-.462-1.473-.637-.606-.076-1.257-.198-1.447-.272-.311-.12-.345-.194-.345-.738 0-.333.063-.645.141-.693.1-.062.114-.476.047-1.42-.289-4.107.125-5.86 1.814-7.668l.394-.421-.808-1.834c-.749-1.698-2.507-6.157-2.828-7.172-.238-.752-.611-2.646-.766-3.893-.082-.656-.201-1.397-.265-1.647-.063-.25-.115-.99-.115-1.646a23.8 23.8 0 0 0-.079-1.946l-.079-.754-.427.472c-.523.579-1.18.909-1.6.804-.171-.043-.54-.291-.821-.55l-.511-.471v-1.024c0-.599-.052-1.024-.126-1.024-.199 0-.143-1.411.067-1.688.27-.357.226-.755-.129-1.178-.173-.205-.314-.441-.314-.524 0-.083-.095-.312-.211-.508-.198-.335-.198-.406 0-1.117.116-.417.211-.972.211-1.233 0-.455-.027-.485-.609-.692-.818-.29-1.214-.623-1.656-1.394-.347-.605-.37-.731-.372-2 0-1.212.04-1.459.384-2.352.455-1.18 1.237-2.282 2.039-2.875.521-.385.597-.506.761-1.229.224-.982.791-1.723 1.692-2.214.521-.283.882-.366 1.993-.457.746-.061 1.476-.148 1.623-.194.205-.064.328.003.532.289.263.37 1.059.778 1.515.778.205 0 .228.07.168.516-.08.597.054.735.721.739.242.002.65.061.908.133.573.159 1.334-.015 1.666-.382.362-.4.44-.305.44.533-.001.933-.327 1.601-.783 1.602-.371 0-1.035.409-1.286.793-.286.437-.075.875.618 1.281.638.374.707.599.289.944-.276.228-.277.242-.062.627.283.508.298 2.128.025 2.9-.33.937-1.372 1.834-2.873 2.474l-.812.347.569.811c1.052 1.501 1.496 2.575 1.865 4.516.354 1.859 1.078 3.853 2.186 6.028 1.905 3.738 2.111 4.189 2.698 5.925.319.945.58 1.807.58 1.916 0 .108.057.197.126.197.191 0 5.683-.995 5.725-1.037.05-.049.303-2.089.303-2.437 0-.237-.432-.501-2.857-1.749-4.155-2.137-5.739-2.962-5.8-3.019-.03-.028-.001-.105.065-.171.075-.075.488-.031 1.122.122l2.572.617 3.678.885c1.159.28 2.182.51 2.273.51.216 0 1.835-1.227 1.835-1.391 0-.194-3.287-6.704-3.409-6.752-.059-.023-.107-.122-.107-.22 0-.097-.057-.177-.126-.177s-.125-.086-.125-.191c0-.186-.241-.69-.389-.814-.042-.035-.075-.158-.074-.273.002-.214.349.139 3.099 3.161.785.864 1.907 2.093 2.493 2.732l1.064 1.162h2.176l.331-1.602.912-4.427c.32-1.554.598-2.842.618-2.862.042-.042.134 1.407.322 5.06.07 1.382.159 2.91.197 3.397l.068.884.965.371c.531.205 1.002.372 1.047.372.096 0 5.629-5.116 6.239-5.769.47-.503.657-.569.56-.197-.036.138-.116.251-.177.251-.061 0-.111.085-.111.189 0 .103-.049.188-.11.188-.062 0-.144.099-.183.22-.07.214-.529 1.03-.935 1.664-.11.173-.891 1.516-1.735 2.985L53.4 35.899l1.108.762 2.103-.582c1.156-.32 3.171-.89 4.477-1.267 1.306-.376 2.415-.668 2.464-.648.049.019-1.598 1.137-3.662 2.484-2.664 1.739-3.734 2.504-3.693 2.637.032.104.214.613.403 1.131.308.845.346 1.128.369 2.763.026 1.775.036 1.842.442 2.7.36.762.422 1.039.465 2.081.042 1.037.012 1.275-.216 1.722-.344.674-.335.792.091 1.2.245.235.704.434 1.476.641 2.139.573 4.204 1.567 4.869 2.344.699.816 1.106 1.809 1.283 3.125.331 2.463.453 12.363.521 14.145l.07 1.833-.724 1.432c-.99 1.956-1.685 3.001-2.382 3.58-.324.269-.977.998-1.45 1.62-.474.621-1.106 1.363-1.404 1.647-1.07 1.021-3.298 2.71-4.484 3.399-.664.386-1.632.97-2.15 1.297-1.469.926-2.668 1.486-4.579 2.135-.97.33-2.33-7.803-3.024-7.554-1.291.462-3.042.836-3.825.816a6.758 6.758 0 0 1-1.005-.131zm1.226-30.905c.339-.362.532-.877.532-1.415 0-.384-.055-.451-.565-.676-.311-.137-.871-.539-1.245-.892l-.679-.643-1.361.423c-1.695.527-1.756.658-.729 1.573.505.45.972.725 1.624.957.504.179 1.163.466 1.465.639.668.382.633.38.958.034zm-2.031-6.199c.038-.146-.034-.485-.16-.754l-.23-.488-3.139-.028-3.139-.027.656.341c.418.218.799.546 1.051.907.218.311.677.855 1.021 1.209l.625.645 1.623-.77c1.178-.56 1.641-.843 1.692-1.035z" style="fill:#222;fill-rule:nonzero" transform="matrix(2 0 0 2 13 -2)"/>
    <path d="M2.75 70v25c0 5.817 4.683 1.25 10.5 1.25h73.5c5.817 0 10.5 4.567 10.5-1.25V70H2.75z" style="fill:#222;fill-rule:nonzero" transform="scale(2)"/>
    <g style="font-weight:700;font-size:27.8345px;line-height:1.25;font-family:sans-serif;-inkscape-font-specification:'sans-serif Bold';letter-spacing:0;word-spacing:0;fill:#fee;fill-opacity:1;stroke-width:.695862">
        <path d="M10.923 142.016h5.232v20.291h-5.232zm10.356 0h5.844l7.38 13.917v-13.917h4.96v20.291H33.62l-7.38-13.917v13.917h-4.961zm28.528 3.954v12.382h1.875q3.208 0 4.893-1.59 1.699-1.59 1.699-4.62 0-3.018-1.686-4.594-1.685-1.577-4.906-1.577zm-5.233-3.954h5.518q4.62 0 6.877.666 2.27.652 3.887 2.229 1.427 1.373 2.12 3.167.693 1.794.693 4.063 0 2.297-.693 4.105-.693 1.794-2.12 3.167-1.63 1.576-3.914 2.242-2.283.652-6.85.652h-5.518zm23.105 0h5.232v20.291H67.68zm7.937 0h5.26l5.382 14.977 5.368-14.977h5.26l-7.516 20.291h-6.238zm23.961 0h5.233v20.291h-5.233zm15.589 3.954v12.382h1.876q3.207 0 4.892-1.59 1.7-1.59 1.7-4.62 0-3.018-1.686-4.594-1.685-1.577-4.906-1.577zm-5.233-3.954h5.518q4.621 0 6.877.666 2.27.652 3.888 2.229 1.427 1.373 2.12 3.167.693 1.794.693 4.063 0 2.297-.693 4.105-.693 1.794-2.12 3.167-1.631 1.576-3.915 2.242-2.283.652-6.85.652h-5.518zm23.105 0h5.233v12.164q0 2.514.815 3.602.83 1.073 2.691 1.073 1.876 0 2.691-1.073.83-1.088.83-3.602v-12.164h5.232v12.164q0 4.308-2.161 6.415t-6.592 2.107q-4.417 0-6.578-2.107-2.16-2.107-2.16-6.415zm22.602 0h14.121v3.955h-8.888v3.778h8.358v3.955h-8.358v4.648h9.187v3.955h-14.42zm19.014 0h5.233v16.336h9.187v3.955h-14.42zm17.736 0h5.233v16.336h9.188v3.955h-14.42z" style="stroke-width:.695862" transform="scale(.91554 1.09225)" aria-label="INDIVIDUELL"/>
    </g>
</svg>

<?xml version="1.0" encoding="UTF-8" standalone="no"?>
<!DOCTYPE svg PUBLIC "-//W3C//DTD SVG 1.1//EN" "http://www.w3.org/Graphics/SVG/1.1/DTD/svg11.dtd">
<svg width="200" height="200" viewBox="0 0 200 200" version="1.1" xmlns="http://www.w3.org/2000/svg" xmlns:xlink="http://www.w3.org/1999/xlink" xml:space="preserve" xmlns:serif="http://www.serif.com/" style="fill-rule:evenodd;clip-rule:evenodd;stroke-linejoin:round;stroke-miterlimit:2;">
    <g id="Individual" transform="matrix(2,0,0,2,0,0)">
        <path id="rect5322" d="M100,3.75C100,1.68 98.32,0 96.25,0L3.75,0C1.68,0 0,1.68 0,3.75L0,96.25C0,98.32 1.68,100 3.75,100L96.25,100C98.32,100 100,98.32 100,96.25L100,3.75Z" style="fill:rgb(34,34,34);"/>
        <path id="rect5324" d="M95,7.5C95,6.12 93.88,5 92.5,5L7.5,5C6.12,5 5,6.12 5,7.5L5,92.5C5,93.88 6.12,95 7.5,95L92.5,95C93.88,95 95,93.88 95,92.5L95,7.5Z" style="fill:rgb(0,153,153);"/>
        <g id="path4587" transform="matrix(1,0,0,1,6.5,-1)">
            <path d="M40.943,81.211C40.158,81.045 38.454,80.496 38.009,80.267C37.806,80.162 37.297,79.963 36.879,79.826C34.991,79.206 33.431,78.133 32.481,76.801C31.157,74.947 26.885,67.194 26.879,66.638C26.878,66.52 27.035,66.153 27.229,65.821C28.088,64.352 28.488,62.782 28.267,61.749C28.193,61.406 28.133,60.965 28.133,60.768C28.133,60.337 28.062,60.306 26.66,60.131C26.054,60.055 25.403,59.933 25.213,59.859C24.902,59.739 24.868,59.665 24.868,59.121C24.868,58.788 24.931,58.476 25.009,58.428C25.109,58.366 25.123,57.952 25.056,57.008C24.767,52.901 25.181,51.148 26.87,49.34L27.264,48.919L26.456,47.085C25.707,45.387 23.949,40.928 23.628,39.913C23.39,39.161 23.017,37.267 22.862,36.02C22.78,35.364 22.661,34.623 22.597,34.373C22.534,34.123 22.482,33.383 22.482,32.727C22.482,32.072 22.446,31.196 22.403,30.781L22.324,30.027L21.897,30.499C21.374,31.078 20.717,31.408 20.297,31.303C20.126,31.26 19.757,31.012 19.476,30.753L18.965,30.282L18.965,29.258C18.965,28.659 18.913,28.234 18.839,28.234C18.64,28.234 18.696,26.823 18.906,26.546C19.176,26.189 19.132,25.791 18.777,25.368C18.604,25.163 18.463,24.927 18.463,24.844C18.463,24.761 18.368,24.532 18.252,24.336C18.054,24.001 18.054,23.93 18.252,23.219C18.368,22.802 18.463,22.247 18.463,21.986C18.463,21.531 18.436,21.501 17.854,21.294C17.036,21.004 16.64,20.671 16.198,19.9C15.851,19.295 15.828,19.169 15.826,17.9C15.826,16.688 15.866,16.441 16.21,15.548C16.665,14.368 17.447,13.266 18.249,12.673C18.77,12.288 18.846,12.167 19.01,11.444C19.234,10.462 19.801,9.721 20.702,9.23C21.223,8.947 21.584,8.864 22.695,8.773C23.441,8.712 24.171,8.625 24.318,8.579C24.523,8.515 24.646,8.582 24.85,8.868C25.113,9.238 25.909,9.646 26.365,9.646C26.57,9.646 26.593,9.716 26.533,10.162C26.453,10.759 26.587,10.897 27.254,10.901C27.496,10.903 27.904,10.962 28.162,11.034C28.735,11.193 29.496,11.019 29.828,10.652C30.19,10.252 30.268,10.347 30.268,11.185C30.267,12.118 29.941,12.786 29.485,12.787C29.114,12.787 28.45,13.196 28.199,13.58C27.913,14.017 28.124,14.455 28.817,14.861C29.455,15.235 29.524,15.46 29.106,15.805C28.83,16.033 28.829,16.047 29.044,16.432C29.327,16.94 29.342,18.56 29.069,19.332C28.739,20.269 27.697,21.166 26.196,21.806L25.384,22.153L25.953,22.964C27.005,24.465 27.449,25.539 27.818,27.48C28.172,29.339 28.896,31.333 30.004,33.508C31.909,37.246 32.115,37.697 32.702,39.433C33.021,40.378 33.282,41.24 33.282,41.349C33.282,41.457 33.339,41.546 33.408,41.546C33.599,41.546 39.091,40.551 39.133,40.509C39.183,40.46 39.436,38.42 39.436,38.072C39.436,37.835 39.004,37.571 36.579,36.323C32.424,34.186 30.84,33.361 30.779,33.304C30.749,33.276 30.778,33.199 30.844,33.133C30.919,33.058 31.332,33.102 31.966,33.255C32.517,33.388 33.675,33.666 34.538,33.872C35.401,34.079 37.056,34.477 38.216,34.757C39.375,35.037 40.398,35.267 40.489,35.267C40.705,35.267 42.324,34.04 42.324,33.876C42.324,33.682 39.037,27.172 38.915,27.124C38.856,27.101 38.808,27.002 38.808,26.904C38.808,26.807 38.751,26.727 38.682,26.727C38.613,26.727 38.557,26.641 38.557,26.536C38.557,26.35 38.316,25.846 38.168,25.722C38.126,25.687 38.093,25.564 38.094,25.449C38.096,25.235 38.443,25.588 41.193,28.61C41.978,29.474 43.1,30.703 43.686,31.342L44.75,32.504L46.926,32.504L47.257,30.902C47.439,30.022 47.849,28.029 48.169,26.475C48.489,24.921 48.767,23.633 48.787,23.613C48.829,23.571 48.921,25.02 49.109,28.673C49.179,30.055 49.268,31.583 49.306,32.07L49.374,32.954L50.339,33.325C50.87,33.53 51.341,33.697 51.386,33.697C51.482,33.697 57.015,28.581 57.625,27.928C58.095,27.425 58.282,27.359 58.185,27.731C58.149,27.869 58.069,27.982 58.008,27.982C57.947,27.982 57.897,28.067 57.897,28.171C57.897,28.274 57.848,28.359 57.787,28.359C57.725,28.359 57.643,28.458 57.604,28.579C57.534,28.793 57.075,29.609 56.669,30.243C56.559,30.416 55.778,31.759 54.934,33.228L53.4,35.899L54.508,36.661L56.611,36.079C57.767,35.759 59.782,35.189 61.088,34.812C62.394,34.436 63.503,34.144 63.552,34.164C63.601,34.183 61.954,35.301 59.89,36.648C57.226,38.387 56.156,39.152 56.197,39.285C56.229,39.389 56.411,39.898 56.6,40.416C56.908,41.261 56.946,41.544 56.969,43.179C56.995,44.954 57.005,45.021 57.411,45.879C57.771,46.641 57.833,46.918 57.876,47.96C57.918,48.997 57.888,49.235 57.66,49.682C57.316,50.356 57.325,50.474 57.751,50.882C57.996,51.117 58.455,51.316 59.227,51.523C61.366,52.096 63.431,53.09 64.096,53.867C64.795,54.683 65.202,55.676 65.379,56.992C65.71,59.455 65.832,69.355 65.9,71.137L65.97,72.97L65.246,74.402C64.256,76.358 63.561,77.403 62.864,77.982C62.54,78.251 61.887,78.98 61.414,79.602C60.94,80.223 60.308,80.965 60.01,81.249C58.94,82.27 56.712,83.959 55.526,84.648C54.862,85.034 53.894,85.618 53.376,85.945C51.907,86.871 50.708,87.431 48.797,88.08C47.827,88.41 46.467,80.277 45.773,80.526C44.482,80.988 42.731,81.362 41.948,81.342C41.706,81.336 41.254,81.277 40.943,81.211L40.943,81.211ZM42.169,50.306C42.508,49.944 42.701,49.429 42.701,48.891C42.701,48.507 42.646,48.44 42.136,48.215C41.825,48.078 41.265,47.676 40.891,47.323L40.212,46.68L38.851,47.103C37.156,47.63 37.095,47.761 38.122,48.676C38.627,49.126 39.094,49.401 39.746,49.633C40.25,49.812 40.909,50.099 41.211,50.272C41.879,50.654 41.844,50.652 42.169,50.306L42.169,50.306ZM40.138,44.107C40.176,43.961 40.104,43.622 39.978,43.353L39.748,42.865L36.609,42.837L33.47,42.81L34.126,43.151C34.544,43.369 34.925,43.697 35.177,44.058C35.395,44.369 35.854,44.913 36.198,45.267L36.823,45.912L38.446,45.142C39.624,44.582 40.087,44.299 40.138,44.107L40.138,44.107Z" style="fill:rgb(34,34,34);fill-rule:nonzero;"/>
        </g>
        <path id="path5326" d="M2.75,70L2.75,95C2.75,100.817 7.433,96.25 13.25,96.25L86.75,96.25C92.567,96.25 97.25,100.817 97.25,95L97.25,70L2.75,70Z" style="fill:rgb(34,34,34);fill-rule:nonzero;"/>
        <g transform="matrix(0.466008,0,0,0.501084,16.459,-0.166712)">
            <g id="Text" transform="matrix(31.9308,0,0,31.9308,-25.1428,177.434)">
                <rect x="0.086" y="-0.699" width="0.156" height="0.699" style="fill:rgb(255,238,238);fill-rule:nonzero;"/>
            </g>
            <g transform="matrix(31.9308,0,0,31.9308,-14.6695,177.434)">
                <path d="M0.575,-0.699L0.731,-0.699L0.731,0L0.575,0L0.242,-0.438L0.242,0L0.086,0L0.086,-0.699L0.232,-0.699L0.575,-0.249L0.575,-0.699Z" style="fill:rgb(255,238,238);fill-rule:nonzero;"/>
            </g>
            <g transform="matrix(31.9308,0,0,31.9308,11.4179,177.434)">
                <path d="M0.333,-0.699C0.458,-0.699 0.553,-0.669 0.62,-0.608C0.687,-0.547 0.72,-0.462 0.72,-0.353C0.72,-0.244 0.688,-0.158 0.623,-0.095C0.558,-0.032 0.458,0 0.325,0L0.086,0L0.086,-0.699L0.333,-0.699ZM0.341,-0.138C0.412,-0.138 0.467,-0.156 0.505,-0.192C0.544,-0.228 0.563,-0.28 0.563,-0.349C0.563,-0.418 0.544,-0.47 0.505,-0.507C0.467,-0.545 0.408,-0.563 0.329,-0.563L0.242,-0.563L0.242,-0.138L0.341,-0.138Z" style="fill:rgb(255,238,238);fill-rule:nonzero;"/>
            </g>
            <g transform="matrix(31.9308,0,0,31.9308,35.9727,177.434)">
                <rect x="0.086" y="-0.699" width="0.156" height="0.699" style="fill:rgb(255,238,238);fill-rule:nonzero;"/>
            </g>
            <g transform="matrix(31.9308,0,0,31.9308,46.446,177.434)">
                <path d="M0.344,-0.254L0.522,-0.699L0.691,-0.699L0.41,0L0.278,0L-0.003,-0.699L0.166,-0.699L0.344,-0.254Z" style="fill:rgb(255,238,238);fill-rule:nonzero;"/>
            </g>
            <g transform="matrix(31.9308,0,0,31.9308,68.4144,177.434)">
                <rect x="0.086" y="-0.699" width="0.156" height="0.699" style="fill:rgb(255,238,238);fill-rule:nonzero;"/>
            </g>
            <g transform="matrix(31.9308,0,0,31.9308,78.8877,177.434)">
                <path d="M0.333,-0.699C0.458,-0.699 0.553,-0.669 0.62,-0.608C0.687,-0.547 0.72,-0.462 0.72,-0.353C0.72,-0.244 0.688,-0.158 0.623,-0.095C0.558,-0.032 0.458,0 0.325,0L0.086,0L0.086,-0.699L0.333,-0.699ZM0.341,-0.138C0.412,-0.138 0.467,-0.156 0.505,-0.192C0.544,-0.228 0.563,-0.28 0.563,-0.349C0.563,-0.418 0.544,-0.47 0.505,-0.507C0.467,-0.545 0.408,-0.563 0.329,-0.563L0.242,-0.563L0.242,-0.138L0.341,-0.138Z" style="fill:rgb(255,238,238);fill-rule:nonzero;"/>
            </g>
            <g transform="matrix(31.9308,0,0,31.9308,103.442,177.434)">
                <path d="M0.271,-0.181C0.297,-0.148 0.332,-0.132 0.376,-0.132C0.42,-0.132 0.455,-0.148 0.481,-0.181C0.506,-0.213 0.519,-0.257 0.519,-0.313L0.519,-0.699L0.675,-0.699L0.675,-0.308C0.675,-0.207 0.647,-0.129 0.591,-0.075C0.535,-0.02 0.463,0.007 0.376,0.007C0.289,0.007 0.217,-0.02 0.161,-0.075C0.104,-0.13 0.076,-0.207 0.076,-0.308L0.076,-0.699L0.232,-0.699L0.232,-0.313C0.232,-0.257 0.245,-0.213 0.271,-0.181Z" style="fill:rgb(255,238,238);fill-rule:nonzero;"/>
            </g>
            <g transform="matrix(31.9308,0,0,31.9308,126.804,177.434)">
                <path d="M0.584,0L0.519,-0.151L0.226,-0.151L0.161,0L-0.005,0L0.297,-0.699L0.448,-0.699L0.75,0L0.584,0ZM0.373,-0.491L0.285,-0.288L0.46,-0.288L0.373,-0.491Z" style="fill:rgb(255,238,238);fill-rule:nonzero;"/>
            </g>
            <g transform="matrix(31.9308,0,0,31.9308,150.593,177.434)">
                <path d="M0.086,0L0.086,-0.699L0.242,-0.699L0.242,-0.139L0.54,-0.139L0.54,0L0.086,0Z" style="fill:rgb(255,238,238);fill-rule:nonzero;"/>
            </g>
        </g>
    </g>
</svg>
